Sources/FrostedUI/Resources/Icons.xcassets/hashtagFilled24.imageset/hashtag-filled-24.svg

<svg width="24" height="24" viewBox="0 0 24 24" fill="none" xmlns="http://www.w3.org/2000/svg" data-fui-icon="true">
  <path
    d="M17.6035 2.61206C17.8181 1.81217 18.6404 1.33721 19.4404 1.55151C20.2405 1.766 20.7154 2.58926 20.501 3.3894L19.667 6.50073H22.0039C22.8321 6.50086 23.5037 7.17257 23.5039 8.00073C23.5039 8.82908 22.8322 9.50061 22.0039 9.50073H18.8633L17.5029 14.5798H20.0811C20.9092 14.5801 21.581 15.2516 21.5811 16.0798C21.5811 16.9081 20.9092 17.5796 20.0811 17.5798H16.6992L15.7598 21.0847C15.5452 21.8846 14.7219 22.3595 13.9219 22.1453C13.1221 21.9307 12.6473 21.1082 12.8613 20.3083L13.5928 17.5798H7.46484L6.52637 21.0837C6.31195 21.8839 5.48868 22.3587 4.68848 22.1443C3.88887 21.9295 3.4136 21.1072 3.62793 20.3074L4.3584 17.5798H2C1.17157 17.5798 0.5 16.9083 0.5 16.0798C0.500028 15.2514 1.17159 14.5798 2 14.5798H5.16211L6.52344 9.50073H3.92285C3.09459 9.50053 2.42285 8.82904 2.42285 8.00073C2.42308 7.17262 3.09473 6.50093 3.92285 6.50073H7.32812L8.37012 2.61108C8.58481 1.81155 9.40727 1.33655 10.207 1.55054C11.0071 1.76492 11.4818 2.58833 11.2676 3.38843L10.4336 6.50073H16.5615L17.6035 2.61206ZM8.26855 14.5798H14.3965L15.7578 9.50073H9.62988L8.26855 14.5798Z"
    fill="currentColor"
  />
</svg>

<svg xmlns="http://www.w3.org/2000/svg" width="24" height="24" fill="none" data-fui-icon="true" viewBox="0 0 24 24"><path fill="currentColor" d="M17.604 2.612a1.5 1.5 0 1 1 2.897.777l-.834 3.112h2.337a1.5 1.5 0 0 1 0 3h-3.14l-1.361 5.079h2.578a1.5 1.5 0 0 1 0 3H16.7l-.94 3.505a1.501 1.501 0 0 1-2.898-.777l.732-2.728H7.465l-.939 3.504a1.5 1.5 0 0 1-2.898-.777l.73-2.727H2a1.5 1.5 0 1 1 0-3h3.162L6.523 9.5h-2.6a1.5 1.5 0 0 1 0-3h3.405L8.37 2.612a1.5 1.5 0 0 1 2.898.777l-.834 3.113h6.127zM8.269 14.58h6.127l1.362-5.08H9.63z"/></svg>
